format-wrap-tight.svg

<svg fill="currentColor" viewBox="0 0 24 24"><path d="m12 7 5 10H7zM3 3h18v2H3zm0 4h6v2H3zm18 0v2h-6V7zM3 11h4v2H3zm18 0v2h-4v-2zM3 15h3v2H3zm18 0v2h-3v-2zM3 19h18v2H3z"/></svg>

<svg  viewBox="0 0 24 24" fill="currentColor"><path  d="M12,7L17,17H7L12,7M3,3H21V5H3V3M3,7H9V9H3V7M21,7V9H15V7H21M3,11H7V13H3V11M21,11V13H17V11H21M3,15H6V17H3V15M21,15V17H18V15H21M3,19H21V21H3V19Z"/></svg>
